icon-themes/sifr_svg/cmd/sc_togglegridhorizontal.svg

<svg viewBox="0 0 16 16" xmlns="http://www.w3.org/2000/svg"><path d="m0 0v2h2v2h-2v2h2v2h-2v2h2v2h-2v2h2v2h2v-2h12v-2h-12v-2h12v-2h-12v-2h12v-2h-12v-2h12v-2h-12z" fill="#555753"/></svg>

<svg xmlns="http://www.w3.org/2000/svg" viewBox="0 0 16 16">
  <path
     style="fill:#555753"
     d="M 0 0 L 0 2 L 2 2 L 2 4 L 0 4 L 0 6 L 2 6 L 2 8 L 0 8 L 0 10 L 2 10 L 2 12 L 0 12 L 0 14 L 2 14 L 2 16 L 4 16 L 4 14 L 16 14 L 16 12 L 4 12 L 4 10 L 16 10 L 16 8 L 4 8 L 4 6 L 16 6 L 16 4 L 4 4 L 4 2 L 16 2 L 16 0 L 4 0 L 0 0 z "
     />
</svg>
